X:1
T:Title
%%score { ( 1 3 ) | ( 2 4 ) }
L:1/8
Q:1/4=126
M:6/4
K:D
V:1 treble nm="Grand Piano"
V:3 treble 
V:2 bass 
V:4 bass 
V:1
 [FA]2 [FA]2 [FA]2 [DF]2 [EG]2 [FA]2 | [Gd]2 [Gc]2 [GB]2 [FA]6 | A3 A A2 E2 F2 G2 | B6 A6 | %4
w: Irving~Gingrich * * * * *||||
 [FA]2 [FA]2 [FA]2 [DF]2 [EG]2 [FA]2 | [Gd]2 [Gc]2 [GB]2 [FA]6 | A3 A A2 ^G2 [Gc]3 [GB] | A12 | %8
w: ||||
 G3 G G2 G2 G2 G2 | [GB]2 [A,FA]2 [A,EG]2 [A,DF]6 | %10
w: ||
 [B,E^G]3 [B,EG] [B,EG]2 [A,EA]2 [A,EA]2 [A,EA]2 | %11
w: |
[M:13/8] [Fc]2 [DFB]2 [B,E^G]2 [EA]- [EA-]3 A2- A/ z/ | %12
w: |
[M:6/4] [=CFA]2 [CFA]2 [CFA]2 [CDF]2 [CEG]2 [CFA]2 | [Gd]2 [Gc]2 [GB]2 [FA]6 | A3 A A2 A2 B2 c2 | %15
w: |||
 [Fd]12 | .[Fd]12 | A3 A A2 [FA]4 [FA]2 | c3 c c2 c2 B2 c2 | d4- [Gd-]2 [Fd]6 | %20
w: |||||
 [Fd]2 [Fd]2 [Fd]2 [Fd]2 [Gd]2 [Ad]2 | e2 d2 B2 [DFA]6 | %22
w: ||
[M:27/16] [CGA]/-[CGA]/-[CGA]-<[CGA][CGA][CGA]-<[CGA][CGB]-<[CGB][CGe]/-[CGe]/-[CGe]/-[CGe]/-[CGe]/-[CGe]-<[CGe][Ge] | %23
w: |
[M:6/4] [Fd]12 |] %24
w: |
V:2
 [D,D]2 [D,D]2 [D,D]2 [D,A,]2 [D,A,]2 [D,A,]2 | [D,B,]2 [D,C]2 [D,D]2 [D,D]6 | %2
 [A,CE]3 [A,CE] [A,CE]2 [G,A,C]2 [F,A,C]2 [E,A,C]2 | [D,G,D]6 [D,F,D]6 | %4
 [D,D]2 [D,D]2 [D,D]2 [D,A,]2 [D,A,]2 [D,A,]2 | [D,B,]2 [D,C]2 [D,D]2 [D,D]6 | %6
 [E,CE]3 [E,CE] [E,CE]2 [E,B,E]2 [E,E]3 [E,D] | [A,CE]12 | %8
 [A,CE]3 [A,CE] [A,CE]2 [A,CE]2 [A,CE]2 [A,CE]2 | [A,,A,]2 B,,2 C,2 D,6 | D,3 D, D,2 C,2 C,2 C,2 | %11
[M:13/8] z z z z z2[K:treble] A,-A,-A,-A,- A,3 |[M:6/4][K:bass] D,2 D,2 D,2 D,2 D,2 D,2 | %13
 [D,B,]2 [D,C]2 [D,D]2 [D,D]6 | [A,CG]3 [A,CG] [A,CG]2 [A,CG]2 [A,B,G]2 [A,G]2 | [D,A,]12 | %16
 [D,A,]3 D, D,2 D,2 D,2 [D,A,D]2 | [A,CE]3 [A,DF] [A,EG]2[K:bass] [D,D]4 [D,D]2 | %18
 [A,EG]3 [A,EG] [A,EG]2 [A,EG]2 [A,DG]2 [A,CG]2 | [D,B,]4 [D,B,]2 [D,A,]6 | %20
 [D,A,]2 [D,A,]2 [D,A,]2 [D,A,]2 [E,A,]2 [F,D]2 | [G,B,G]2[K:treble] [G,B,G]2 [G,DG]2[K:bass] D,6 | %22
[M:27/16] E,/-E,/-E,-<E,E,E,-<E,A,,-<A,,A,,/-A,,/-A,,/-A,,/-A,,/-A,,-<A,,[A,,A,] | %23
[M:6/4] [D,A,]12 |] %24
V:3
 x12 | x12 | x12 | x12 | x12 | x12 | x12 | x12 | x12 | x12 | x12 |[M:13/8] z z z z z2 C-C-C-C- C3 | %12
[M:6/4] x12 | x12 | x12 | x12 | z2 z A, A,2 A,2 [A,FA]2 F2 | x12 | x12 | .G6 z6 | x12 | x12 | %22
[M:27/16] x27/2 |[M:6/4] x12 |] %24
V:4
 x12 | x12 | x12 | x12 | x12 | x12 | x12 | x12 | x12 | x12 | x12 | %11
[M:13/8] [D,A,]2 D,2 E,2[K:treble] z z z2 G3 |[M:6/4][K:bass] x12 | x12 | x12 | x12 | x12 | %17
 x6[K:bass] x6 | x12 | x12 | x12 | G,,6[K:treble][K:bass] z6 |[M:27/16] x27/2 |[M:6/4] x12 |] %24

